X:1
T:The Whistler
L:1/8
M:2/4
I:linebreak $
K:G
V:1 treble 
V:1
|: Bc | dd/B/ GB | dd/B/ Gd | gf/g/ ag |1 A2 AB | cc/A/ FA | cc/A/ FA | dc/d/ ed | B2 :|2 e2 eg |$ %10
 aa ag | ff fe | dc/d/ ef | g2 |: dg | b2 bg/e/ | d2 dB/d/ | gf/g/ ag | e2 ea |1 c'2 c'a/g/ | %20
 f2 fe |$ dc/d/ ed | B2 :|2 aa ag | ff fe | dc/d/ ef | g2 |] %27
